!!!!SEGMENT: pl-sa--77-a-ii-17--004_kotowicz--passio-ex-c-moll-cos-uczynilo-zrodlo-niewinnosci.krn
!!!cenid: 17xx:344
!!!COM: Kotowicz
!!!COM-rismID: pe41024678
!!!CDT:
!!!CNT:
!!!OPR: Passio ex c-moll
!!!OTL: Coś uczyniło źródło niewinności
!!!OMV: 004
!!!PDT: 1767
!!!AGN: Sacred; Passions
!!!SMS-siglum: PL-SA
!!!SMS-shelfmark: 77/A II 17
!!!SMS-shelfwork: 001-004 M
!!!NIFC-rismSourceID: 1001077252
!!!NIFC-rismChildID: 1001077252
!!!NIFC-islandoraID: none
!!!URL-pdf-islandora:
!!!URL-scan: https://bc.bdsandomierz.pl/dlibra/publication/1354/edition/1322/content @EN{Scan in the Sandomierz Diocese Digital Library} @PL{Skany w portalu Cyfrowa Biblioteka Diecezjalna w Sandomierzu}
!!!ONB-nifc: UWAGA: części Passio: Passio Domini nostri, Płaczcie angeli, Aprehendit ergo Pilatus, Coś uczyniło źródło niewinności, Orabat autem Jesus, Qui passus est
!!!AIN: 1 cor 1 empty 1 oboe 1 organ 2 violn 1 vox
!!!key:
**kern	**fba	**kern	**dynam	**kern	**dynam	**kern	**kern	**text	**kern	**kern	**kern
*part8	*part8	*part7	*part7	*part6	*part6	*part5	*part4	*part4	*part3	*part3	*part1
*staff8	*staff8	*staff7	*	*staff3	*	*staff5	*staff4	*staff4	*staff3	*staff2	*staff1
*Iorgan	*	*Ivioln	*	*Ivioln	*	*Iempty	*Ivox	*	*Icor	*Icor	*Ioboe
*I"Organo	*	*I"Violino Secundo	*	*I"Violino Primo	*	*I"Baſso	*I"Canto	*	*I"Corno Secundo Ex Dis	*I"Corno Primo Ex Diʃ	*I"Oboe Primo
*I'org	*	*I'vn 2	*	*I'vn 1	*	*I'B	*I'C	*	*I'c 2	*I'c 1	*I'ob
*group5	*	*group4	*	*group4	*	*group3	*group3	*	*group2	*group2	*group1
*clefF4	*	*clefG2	*	*clefG2	*	*	*clefC1	*	*	*	*clefG2
*k[b-e-a-]	*	*k[b-e-a-]	*	*k[b-e-a-]	*	*	*k[b-e-a-]	*	*	*	*k[b-e-a-]
*c:	*	*c:	*	*c:	*	*	*c:	*	*	*	*c:
*M3/4	*	*M3/4	*	*M3/4	*	*	*M3/4	*	*	*	*M3/4
=1	=1	=1	=1	=1	=1	=1	=1	=1	=1	=1	=1
*2\right	*	*2\right	*	*2\right	*	*	*2\right	*	*	*	*2\right
!LO:TX:a:t=P:global:problem=niekonsekwentny zapis caudy 4\ 8\ 16\	!	!LO:TX:a:t=P:global:problem=niekonsekwentny zapis caudy 4\ 8\ 16\	!	!LO:TX:a:t=P:global:problem=niekonsekwentny zapis caudy 4\ 8\ 16\	!	!LO:TX:b:t=Planctus \n 2dus \n Tacet	!LO:TX:a:t=P:global:problem=niekonsekwentny zapis caudy 4\ 8\ 16\	!	!LO:TX:b:t=Planctus \n 2dus \n Tacet	!LO:TX:b:t=Planctus \n 2dus \n Tacet	!
!	!	!LO:TX:a:i:t=Lentiſsima	!	!LO:TX:b:t=Coś uczyniło	!	!	!LO:TX:a:t=Lentiſsima solo	!	!	!	!LO:TX:a:t=P:problem=8\right&colon; global
!LO:TX:a:B:t=Planctus IIdus	!	!LO:TX:a::B:t=Planctus 2dus	!	!LO:TX:a:B:t=Planctus 2dus	!	!	!LO:TX:a:t=Solo	!	!	!	!LO:TX:a:t=Planctus 2dus
!LO:TX:b:t=Coś Uczyniło	!	!LO:TX:b:t=Coś uczyniło	!	!	!	!	!	!	!	!	!
8C/L	.	8e-/L	.	8g/L	.	0.ryy	4cc\	Cos	0.ryy	0.ryy	8gg\L
8C/	.	8e-/	.	8g/	.	.	.	.	.	.	8gg\
.	.	.	.	.	.	.	8qqdd/	.	.	.	.
8C/	.	8e-/	.	8g/	.	.	4ee-\	u-	.	.	8gg\
8C/	.	8e-/	.	8g/	.	.	.	.	.	.	8gg\J
.	.	.	.	.	.	.	8qqff/	.	.	.	.
8C/	.	8e-/	.	8g/	.	.	4gg\	-czy-	.	.	8gg\L
8C/J	.	8e-/J	.	8g/J	.	.	.	.	.	.	8gg\J
=2	=2	=2	=2	=2	=2	=2	=2	=2	=2	=2	=2
8C/L	.	8e-/L	.	8g/L	.	.	2ee-\	-ni-	.	.	8gg\L
8C/	.	8e-/	.	8g/	.	.	.	.	.	.	8gg\
8C/	.	8e-/	.	8g/	.	.	.	.	.	.	8gg\
8C/	.	8e-/	.	8g/	.	.	.	.	.	.	8gg\J
.	.	.	.	.	.	.	8qqdd/	.	.	.	.
8C/	.	8e-/	.	8g/	.	.	4cc\	-ło	.	.	8gg\L
8C/J	.	8e-/J	.	8g/J	.	.	.	.	.	.	8gg\J
=3	=3	=3	=3	=3	=3	=3	=3	=3	=3	=3	=3
8C/L	.	8c/L	.	8e-/L	.	.	8gg\	Źró-	.	.	8ee-\L
8C/J	.	8c/	.	8e-/	.	.	8gg\	-dło	.	.	8ee-\
8A-\L	.	8Bn/	.	8f/	.	.	4aa-\	nie-	.	.	8ff\
8A-\J	.	8B/	.	8f/	.	.	.	.	.	.	8ff\
8C/L	.	8c/	.	8f#X/	.	.	4cc\	-win-	.	.	8ff#X\
8C/J	.	8c/J	.	8f#/J	.	.	.	.	.	.	8ff#\J
!	!	!LO:LB:g=original	!	!LO:LB:g=original	!	!	!	!	!	!	!
=4	=4	=4	=4	=4	=4	=4	=4	=4	=4	=4	=4
.	.	.	.	.	.	.	8qqdd/	.	.	.	.
8G\L	.	8B-/L	.	8g/L	.	.	4cc\	-no-	.	.	8g\L
8G\	.	8d/	.	8bn/	.	.	.	.	.	.	8bn\
8G\	.	8d/	.	8b/	.	.	4bn\	-ści	.	.	8b\
8G\	.	8d/	.	8b/	.	.	.	.	.	.	8b\
8G\	.	8d/	.	8b/	.	.	4r	.	.	.	8b\
8G\J	.	8d/J	.	8b/J	.	.	.	.	.	.	8b\J
=5	=5	=5	=5	=5	=5	=5	=5	=5	=5	=5	=5
4BBn/	.	8B-X/L	.	8dd\L	.	0.ryy	(8ff\L	Że	0.ryy	0.ryy	8dd\L
.	.	8B-/	.	8cc\	.	.	8ee-\J)	Krwi	.	.	8cc\
4r	.	8f/	.	8bn\	.	.	(8dd\L	.	.	.	8bn\
.	.	8B-/	.	8cc\	.	.	8ee-\J)	.	.	.	8cc\
!	!	!	!	!	!	!	!LO:LB:g=original	!	!	!	!
4r	.	8B-/	.	8dd\	.	.	8ff\L	po-	.	.	8dd\
.	.	8B-/J	.	8ee-\J	.	.	8gg\J	.	.	.	8een\J
!	!	!	!	!	!	!	!	!	!	!	!LO:LB:g=original
=6	=6	=6	=6	=6	=6	=6	=6	=6	=6	=6	=6
!LO:TX:a:t=1.	!	!	!	!	!	!	!	!	!	!	!
2.r	.	8B-/L	.	8ff\L	.	.	8aa-\L	-to-	.	.	8ff\L
.	.	8B-/	.	8ee-\	.	.	8gg\J	.	.	.	8ee-\J
!	!	!	!	!	!	!	!LO:TX:a:t=P:problem=przepełniona miara taktu	!	!	!	!
!	!	!	!	!	!	!	!LO:N:vis=2.	!	!	!	!
.	.	8B-/	.	8ff\	.	.	2aa-\	-ki	.	.	8ee-\L
.	.	8B-/	.	8ff\	.	.	.	.	.	.	8ee-\
.	.	8B-/	.	8ff\	.	.	.	.	.	.	8ee-\
.	.	8B-/J	.	8ff\J	.	.	.	.	.	.	8ee-\J
=7	=7	=7	=7	=7	=7	=7	=7	=7	=7	=7	=7
4A-\	.	4a-/	.	8ee-\L	.	.	8gg\L	le-	.	.	8ee-\L
.	.	.	.	8cc\J	.	.	8cc\J	-iesz	.	.	8cc\J
!	!	!	!	!	!	!	!	!	!	!	!LO:TX:a:t=t
!	!	!	!	!	!	!	!	!	!	!	!LO:TX:a:t=P:problem=4\right&colon; global
4B-\	.	4b-/	.	4ddt\	.	.	4.ddt\	sa-	.	.	4dd\
4BB-/	.	4B-/	.	8dd\	.	.	.	.	.	.	8dd\
!	!	!	!	!LO:TX:a:t=P:problem=niepełna miara taktu brakuje wartości jednej 8	!	!	!	!	!	!	!LO:TX:a:t=P:problem= niepełna miara taktu- brakuje wartości jednej 8
.	.	.	.	8ryy	.	.	8dd\	-me	.	.	8ryy
!LO:LB:g=original	!	!	!	!	!	!	!	!	!	!	!
=8	=8	=8	=8	=8	=8	=8	=8	=8	=8	=8	=8
!	!	!	!	!LO:TX:a:t=P:problem=mixed beam	!	!	!	!	!	!	!
8E-\L	.	8g/L	.	8ee-\L	.	.	2ee-\	zło-	.	.	8ee-\L
8G\	.	8G/J	.	8e-/J	.	.	.	.	.	.	8ee-\J
8B-\	.	4G/	.	4e-/	.	.	.	.	.	.	4ee-\
8G\J	.	.	.	.	.	.	.	.	.	.	.
4E-\	.	4r	.	4r	.	.	4ee-\	-ści	.	.	4r
!	!	!	!	!LO:LB:g=original	!	!	!	!	!	!	!
=9	=9	=9	=9	=9	=9	=9	=9	=9	=9	=9	=9
!	!	!	!	!	!	!	!LO:N:vis=00	!	!	!	!
!	!	!	!	!	!	!	!LO:TX:a:t=11.	!	!	!	!
8E-\L	.	8g/	.	8b-X\	.	0.ryy	0.r	.	0.ryy	0.ryy	8b-X\
!	!	!	!LO:DY:b:t=forte	!	!	!	!	!	!	!	!
8E-\	.	4b-\	f	(4ee-\	.	.	.	.	.	.	4ee-\
8E-\	.	.	.	.	.	.	.	.	.	.	.
8E-\	.	4ee-\	.	4gg\)	.	.	.	.	.	.	4gg\
8E-\	.	.	.	.	.	.	.	.	.	.	.
8E-\J	.	16e-/LL	.	16g/LL	.	.	.	.	.	.	16g/LL
.	.	16g/JJ	.	16b-/JJ	.	.	.	.	.	.	16b-/JJ
!	!	!LO:LB:g=original	!	!	!	!	!	!	!	!	!
=10	=10	=10	=10	=10	=10	=10	=10	=10	=10	=10	=10
8BB-/L	.	16f/LL	.	16a-/LL	.	.	.	.	.	.	16a-/LL
.	.	16e-/JJ	.	16g/JJ	.	.	.	.	.	.	16g/JJ
8BB-/	.	(4f/	.	4a-/	.	.	.	.	.	.	4a-/
8BB-/	.	.	.	.	.	.	.	.	.	.	.
8BB-/	.	4a-/	.	4ff\	.	.	.	.	.	.	4ff\
8BB-/	.	.	.	.	.	.	.	.	.	.	.
8BB-/J	.	16d/LL)	.	16f/LL	.	.	.	.	.	.	16f/LL
.	.	16f/JJ	.	16a-/JJ	.	.	.	.	.	.	16a-/JJ
=11	=11	=11	=11	=11	=11	=11	=11	=11	=11	=11	=11
4BB-/	.	16e-/LL	.	16g/LL	.	.	.	.	.	.	16g/LL
.	.	16d/JJ	.	16f/JJ	.	.	.	.	.	.	16f/JJ
.	.	4ff\	.	(4aa-\	.	.	.	.	.	.	4aa-\
4r	.	.	.	.	.	.	.	.	.	.	.
.	.	4a-/	.	4ff\	.	.	.	.	.	.	4ff\
4BB-/	.	.	.	.	.	.	.	.	.	.	.
.	.	8g/	.	8ee-\)	.	.	.	.	.	.	8ee-\
=12	=12	=12	=12	=12	=12	=12	=12	=12	=12	=12	=12
!	!	!	!	!	!	!	!	!	!	!	!LO:TX:a:t=P:problem=16\right&colon; global
4BB-/	.	16b-\LL	.	16dd\LL	.	.	.	.	.	.	16dd\LL
.	.	16cc\JJ	.	16ee-\JJ	.	.	.	.	.	.	16ee-\JJ
.	.	(4dd\	.	4ff\	.	.	.	.	.	.	4ff\
4r	.	.	.	.	.	.	.	.	.	.	.
.	.	4ee-\)	.	4gg\	.	.	.	.	.	.	4gg\
4BB-/	.	.	.	.	.	.	.	.	.	.	.
.	.	8dd\	.	8ff\	.	.	.	.	.	.	8ff\
=13	=13	=13	=13	=13	=13	=13	=13	=13	=13	=13	=13
!	!	!LO:TX:a:t=P:problem=mixed beam	!	!LO:TX:a:t=P:problem=mixed beam	!	!	!LO:N:vis=00	!	!	!	!LO:TX:a:t=P:problem=mixed beam
8E-/L	.	8.gg\L	.	8.bb-\L	.	0.ryy	0.r	.	0.ryy	0.ryy	8bb-\L
8E-/	.	.	.	.	.	.	.	.	.	.	8b-/J
.	.	16g/Jk	.	16b-/Jk	.	.	.	.	.	.	.
!	!	!LO:TX:a:t=t	!	!	!	!	!	!	!	!	!
8E-/	.	4g/	.	4.b-\	.	.	.	.	.	.	4b-\
8E-/J	.	.	.	.	.	.	.	.	.	.	.
!	!	!LO:TX:a:t=P:problem= niepełna miara taktu brakuje wartości jednej 8	!	!	!	!	!	!	!	!	!
8BB-/L	.	8ryy	.	.	.	.	.	.	.	.	8aa-\
!	!	!	!	!	!	!	!	!	!	!	!LO:TX:a:t=P:problem= niepełna miara taktu - brakuje wartości jednej 8
8BB-/J	.	8ff\	.	8aa-\	.	.	.	.	.	.	8ryy
!	!	!	!	!LO:LB:g=original	!	!	!	!	!	!	!LO:LB:g=original
=14	=14	=14	=14	=14	=14	=14	=14	=14	=14	=14	=14
4AA-/	.	8ee-\L	.	8gg\L	.	.	.	.	.	.	8gg\L
.	.	8cc\J	.	16ff\L	.	.	.	.	.	.	32ff\LL
.	.	.	.	.	.	.	.	.	.	.	32ee-\JJJ
.	.	.	.	16ee-\JJ	.	.	.	.	.	.	2ff\
4B-\	.	4d/	.	2ee-T\	.	.	.	.	.	.	.
4BB-/	.	4a-/	.	.	.	.	.	.	.	.	.
!	!	!	!	!	!	!	!	!	!	!	!LO:TX:a:t=P:problem= niepełna miara taktu- brakuje wartości jednej 16
.	.	.	.	.	.	.	.	.	.	.	16ryy
!LO:LB:g=original	!	!LO:LB:g=original	!	!	!	!	!	!	!	!	!
=15	=15	=15	=15	=15	=15	=15	=15	=15	=15	=15	=15
8E-\L	.	8g/	.	8ee-\	.	.	.	.	.	.	8ee-\
8C\	.	(4g/	.	4een\	.	.	.	.	.	.	4een\
8C\	.	.	.	.	.	.	.	.	.	.	.
8C\	.	16a-/LL	.	16ff\LL	.	.	.	.	.	.	16ff\LL
.	.	16b-X/JJ)	.	16gg\JJ	.	.	.	.	.	.	16gg\JJ
8C\	.	8a-/L	.	8ff\L	.	.	.	.	.	.	8ff\L
8C\J	.	8g/J	.	8een\J	.	.	.	.	.	.	8een\J
=16	=16	=16	=16	=16	=16	=16	=16	=16	=16	=16	=16
8F\L	.	8a-/L	.	8ff\L	.	.	.	.	.	.	8ff\L
8BB-\	.	16g/L	.	16bn\L	.	.	.	.	.	.	16bn\L
.	.	16a-/JJ	.	16cc\JJ	.	.	.	.	.	.	16cc\JJ
8BB-\	.	8b-/	.	8dd-X\	.	.	.	.	.	.	8dd-X\
8BB-\	.	4g/	.	4b/	.	.	.	.	.	.	4b\
8BB-\	.	.	.	.	.	.	.	.	.	.	.
8BB-\J	.	8en/	.	8g/	.	.	.	.	.	.	8g/
=17	=17	=17	=17	=17	=17	=17	=17	=17	=17	=17	=17
!LO:TX:a:t=P:problem=mixed beam	!	!	!	!	!	!	!LO:N:vis=0	!	!	!	!
8C\L	.	8c/	.	8en/	.	0.ryy	1.r	.	0.ryy	0.ryy	8een\
8BB-X/	.	(4f/	.	(4ddn\	.	.	.	.	.	.	4ddn\
8BB-/	.	.	.	.	.	.	.	.	.	.	.
8BB-/	.	16g/LL	.	16ee-X\LL	.	.	.	.	.	.	16ee-X\LL
.	.	16a-/JJ)	.	16ff\JJ)	.	.	.	.	.	.	16ff\JJ
8BB-/	.	8g/L	.	8ee-\L	.	.	.	.	.	.	8ee-\L
8BB-/J	.	8f/J	.	8dd\J	.	.	.	.	.	.	8dd\J
=18	=18	=18	=18	=18	=18	=18	=18	=18	=18	=18	=18
!LO:TX:a:t=P:problem=mixed beam	!	!	!	!LO:TX:a:t=P:problem=mixed beam	!	!	!	!	!	!	!
8F\L	.	8g/L	.	8ee-\L	.	.	.	.	.	.	8ee-\L
8BB-/	.	16d/L	.	16f/L	.	.	.	.	.	.	16f/L
.	.	16e-/JJ	.	16g/JJ	.	.	.	.	.	.	16g,/JJ
!	!	!	!	!LO:LB:g=original	!	!	!	!	!	!	!
8BB-/	.	8f/	.	8a-/	.	.	.	.	.	.	4g/
8BB-/	.	4d/	.	4f/	.	.	.	.	.	.	.
8BB-/	.	.	.	.	.	.	.	.	.	.	8d/
!	!	!	!	!	!	!	!	!	!	!	!LO:TX:a:t=P:problem= niepełna miara taktu- brakuje wartości jednej 8
8BB-/J	.	8B-X/	.	8d/	.	.	.	.	.	.	8ryy
!	!	!LO:LB:g=original	!	!	!	!	!	!	!	!	!
=19	=19	=19	=19	=19	=19	=19	=19	=19	=19	=19	=19
!	!	!	!	!	!	!	!LO:TX:b:t=Vertatuto	!	!	!	!
4BB-/	.	8B-/	.	8B-/	.	.	2.r	.	.	.	8b-\
.	.	4g/	.	4ee-\	.	.	.	.	.	.	4ee-\
8r	.	.	.	.	.	.	.	.	.	.	.
!LO:TX:a:t=P:problem=mixed beam	!	!	!	!	!	!	!	!	!	!	!
8A-\L	.	8a-/L	.	8ff\L	.	.	.	.	.	.	8ff\L
8B-\	.	8f/	.	8b-\	.	.	.	.	.	.	8b-\
8BB-/J	.	8e-/J	f	8cc\J	.	.	.	.	.	.	8cc\J
!	!	!	!	!	!	!	!LO:PB:g=original	!	!	!	!
=20	=20	=20	=20	=20	=20	=20	=20	=20	=20	=20	=20
!	!	!LO:TX:a:t=P:problem=mixed beam	!	!	!	!	!	!	!	!	!
8E-\L	.	8g/L	.	8ee-\L	.	.	8r	.	.	.	8ee-\L
8E-\	.	8g/	.	8b-\	.	.	8ee-\	ʃto-	.	.	8b-\J
8E-\	.	8g/	.	8b-\	.	.	4e-/	-isz	.	.	8b-\L
!	!	!	!LO:DY:b:t=pia	!	!	!	!	!	!	!	!
8E-\	.	8g/	p	8b-\	.	.	.	.	.	.	8b-\
8E-\	.	8ee-\	.	8b-\	.	.	4gg\	nie-	.	.	8b-\
8E-\J	.	8ee-\J	.	8b-\J	.	.	.	.	.	.	8b-\J
!	!	!	!	!	!	!	!	!	!	!	!LO:LB:g=original
=21	=21	=21	=21	=21	=21	=21	=21	=21	=21	=21	=21
!	!	!LO:TX:a:t=P:problem=mixed beam	!	!	!	!	!	!	!	!	!
8BB-/L	.	8ee-\L	.	8b-\L	.	0.ryy	8gg\L	-win-	0.ryy	0.ryy	8b-\L
8BB-/	.	8f/	.	8dd\	.	.	8ff\J	.	.	.	8dd\J
.	.	.	.	.	.	.	(8qee-/	.	.	.	.
8BB-/	.	8f/	.	8dd\	.	.	4ff\)	-ny	.	.	8dd\L
8BB-/	.	8f/	.	8dd\	.	.	.	.	.	.	8dd\
8BB-/	.	8f/	.	8dd\	.	.	8r	.	.	.	8dd\
8BB-/J	.	8f/J	.	8dd\J	.	.	8b-\	u	.	.	8dd\J
!LO:LB:g=original	!	!	!	!	!	!	!	!	!	!	!
=22	=22	=22	=22	=22	=22	=22	=22	=22	=22	=22	=22
!LO:TX:a:t=1.	!	!	!	!	!	!	!	!	!	!	!
2.r	.	8a-/L	.	8cc\L	.	.	4cc\	słu-	.	.	8cc\L
.	.	8a-/	.	8cc\	.	.	.	.	.	.	8cc\
.	.	8f/	.	8dd\	.	.	4dd\	-pa	.	.	8dd\
.	.	8f/	.	8dd\	.	.	.	.	.	.	8dd\
.	.	8g/	.	8ee-\	.	.	4ee-\	zwią-	.	.	8ee-\
.	.	8g/J	.	8ee-\J	.	.	.	.	.	.	8ee-\J
=23	=23	=23	=23	=23	=23	=23	=23	=23	=23	=23	=23
!	!	!	!	!	!	!	!LO:TX:a:t=t	!	!	!	!
4.F\	.	4d/	.	4ff\	.	.	4.ff\	-za-	.	.	4ff\
.	.	4r	.	4r	.	.	.	.	.	.	4r
8G\L	.	.	.	.	.	.	8gg\	-ny	.	.	.
8A-\	.	4r	.	4r	.	.	8aa-\	Zam-	.	.	4r
8E-\J	.	.	.	.	.	.	8ee-\	-nich	.	.	.
!	!	!	!	!LO:LB:g=original	!	!	!	!	!	!	!
=24	=24	=24	=24	=24	=24	=24	=24	=24	=24	=24	=24
!	!	!LO:TX:a:t=1.	!	!LO:TX:a:t=1.	!	!	!	!	!	!	!LO:TX:a:t=1
4A-\	.	2.r	.	2.r	.	.	4cc\	Ka-	.	.	2.r
!	!	!	!	!	!	!	!LO:TX:a:t=tu&colon;	!	!	!	!
4B-\	.	.	.	.	.	.	2dd\	-ra-	.	.	.
4BB-/	.	.	.	.	.	.	.	.	.	.	.
=25	=25	=25	=25	=25	=25	=25	=25	=25	=25	=25	=25
4E-\	.	8r	.	8r	.	0.ryy	4ee-\	-ny	0.ryy	0.ryy	8r
!	!	!	!	!	!LO:DY:b:t=for	!	!	!	!	!	!
.	.	8gg\L	.	8bb-X\L	f	.	.	.	.	.	8bb-\L
4r	.	(8ff\	.	8aa-\	.	.	4r	.	.	.	8aa-\
.	.	8ee-\	.	8gg\	.	.	.	.	.	.	8gg\
!	!	!	!LO:DY:b:t=for	!	!	!	!	!	!	!	!
4r	.	8dd\)	f	8ff\	.	.	4r	.	.	.	8ff\
.	.	8ee-\J	.	8ee-\J	.	.	.	.	.	.	8ee-\J
!	!	!LO:LB:g=original	!	!	!	!	!LO:LB:g=original	!	!	!	!
=26	=26	=26	=26	=26	=26	=26	=26	=26	=26	=26	=26
!	!	!	!	!	!	!	!LO:TX:a:t=2.	!	!	!	!
!	!	!	!	!	!	!	!LO:N:vis=0	!	!	!	!
4AA-/	.	8.b-/L	.	8.b-\L	.	.	1.r	.	.	.	8.b-\L
.	.	16g/Jk	.	16ee-\Jk	.	.	.	.	.	.	16ee-\Jk
!	!	!	!	!LO:TX:a:t=t	!	!	!	!	!	!	!LO:TX:a:t=t
2BB-/	.	4a-/	.	2ff\	.	.	.	.	.	.	2ff\
.	.	4a-/	.	.	.	.	.	.	.	.	.
=27	=27	=27	=27	=27	=27	=27	=27	=27	=27	=27	=27
4E-\	.	8g/	.	8ee-\	.	.	.	.	.	.	8ee-\
.	.	4ee-\	.	4gg\	.	.	.	.	.	.	4gg\
4C/	.	.	.	.	.	.	.	.	.	.	.
.	.	8e-/L	.	(8cc\L	.	.	.	.	.	.	8cc\L
4G\	.	8f/	.	8dd\	.	.	.	.	.	.	8dd\
.	.	8d/J	.	8bn\J)	.	.	.	.	.	.	8bn\J
=28	=28	=28	=28	=28	=28	=28	=28	=28	=28	=28	=28
4C/	.	8e-/	.	8cc\	.	.	8r	.	.	.	8cc\
.	.	4g/	.	(4een\	.	.	8een\	Ach	.	.	4een\
4C/	.	.	.	.	.	.	8ee\L	mnie	.	.	.
.	.	4a-X/	.	4ff\)	.	.	8ff\J	.	.	.	4ff\
4C/	.	.	.	.	.	.	8ff\L	.	.	.	.
.	.	8b-X/	.	8gg\	.	.	8gg\J	-gdzie	.	.	8gg\
=29	=29	=29	=29	=29	=29	=29	=29	=29	=29	=29	=29
4F\	.	8cc/L	.	8aa-\L	.	0.ryy	8aa-\L	są	0.ryy	0.ryy	8aa-\L
.	.	8b-/	.	8gg\	.	.	8gg\J	łzy	.	.	8gg\
4F\	.	8cc/	.	8aa-\	.	.	2aa-\	.	.	.	8aa-\
.	.	8a-/J	.	8cc\	.	.	.	.	.	.	8cc\
4F\	.	8a-/L	.	8cc\	.	.	.	.	.	.	8cc\
.	.	8a-/J	.	8cc\J	.	.	.	.	.	.	8cc\J
!	!	!	!	!LO:LB:g=original	!	!	!	!	!	!	!LO:LB:g=original
=30	=30	=30	=30	=30	=30	=30	=30	=30	=30	=30	=30
4F\	.	8a-/L	.	8cc\L	.	.	16aa-\LL	gdzie	.	.	8cc\L
.	.	.	.	.	.	.	16gg\JJ	.	.	.	.
.	.	8a-/	.	8cc\	.	.	16aa-\LL	fon-	.	.	8cc\
.	.	.	.	.	.	.	16ff\JJ	.	.	.	.
4C/	.	8b-/	.	8een\	.	.	4.een\	-tan-	.	.	8een\
.	.	8b-/	.	8ee\	.	.	.	.	.	.	8ee\
4FF/	.	8g/	.	8ee\	.	.	.	.	.	.	8ee\
.	.	8g/J	.	8ee\J	.	.	8ee\	-ny	.	.	8ee\J
=31	=31	=31	=31	=31	=31	=31	=31	=31	=31	=31	=31
*tremolo	*	*	*	*	*	*	*	*	*	*	*
8F\L	.	8a-/L	.	8ff\L	.	.	8ff\L	Ży-	.	.	8ff\L
8F\	.	8a-/	.	8cc\	.	.	8ee-\J	.	.	.	8cc\J
8F\	.	8a-/	.	8cc\	.	.	4ff\	-wy	.	.	8cc\L
8F\	.	8a-/	.	8cc\	.	.	.	.	.	.	8cc\
8F\	.	8a-/	.	8cc\	.	.	4r	.	.	.	8cc\
8F\J	.	8a-/J	.	8cc\J	.	.	.	.	.	.	8cc\J
*Xtremolo	*	*	*	*	*	*	*	*	*	*	*
!LO:LB:g=original	!	!LO:LB:g=original	!	!	!	!	!	!	!	!	!
=32	=32	=32	=32	=32	=32	=32	=32	=32	=32	=32	=32
4BB-/	.	8d/	.	8b-\	.	.	4dd\	gdzie	.	.	8b-\
.	.	(4f/	.	4dd\	.	.	.	.	.	.	4dd\
4BB-/	.	.	.	.	.	.	(8dd\L	.	.	.	.
!	!	!	!	!	!LO:DY:b:t=pia	!	!	!	!	!	!
.	.	4g/	.	4ee-X\	p	.	8ee-\J)	.	.	.	4ee-X\
4BB-/	.	.	.	.	.	.	(8ee-\L	Oczuw	.	.	.
.	.	8a-/)	.	8ff\	.	.	8ff\J)	.	.	.	8ff\
!	!	!	!	!	!	!	!LO:LB:g=original	!	!	!	!
=33	=33	=33	=33	=33	=33	=33	=33	=33	=33	=33	=33
!	!	!	!	!LO:TX:a:t=P:problem=mixed beam	!	!	!	!	!	!	!
4E-\	.	8b-/L	.	8gg\L	.	0.ryy	(8gg\L	Źró-	0.ryy	0.ryy	8gg\L
.	.	8g/	.	8b-X/	.	.	8ff\J)	-dła	.	.	8b-X/
4E-\	.	8g/	.	(8b-/	.	.	2gg\	.	.	.	8b-/
.	.	8g/	.	8b-/	.	.	.	.	.	.	8b-/
4E-\	.	8g/	.	8b-/	.	.	.	.	.	.	8b-/
.	.	8g/J	.	8b-/J)	.	.	.	.	.	.	8b-/J
=34	=34	=34	=34	=34	=34	=34	=34	=34	=34	=34	=34
4E-\	.	8g/L	.	8b-\L	.	.	16gg\LL	Je-	.	.	8b-\L
.	.	.	.	.	.	.	16ff\JJ	-zu	.	.	.
.	.	8g/	.	8b-\	.	.	16gg\LL	.	.	.	8b-\J
.	.	.	.	.	.	.	16ee-\JJ	.	.	.	.
4B-\	.	8a-/	.	8dd\	.	.	4.dd\	moy	.	.	8dd\L
.	.	8a-/	.	8dd\	.	.	.	.	.	.	8dd\
4BB-/	.	8f/	.	8dd\	.	.	.	.	.	.	8dd\
.	.	8f/J	.	8dd\J	.	.	8dd\	praw-	.	.	8dd\J
=35	=35	=35	=35	=35	=35	=35	=35	=35	=35	=35	=35
8E-\L	.	8g/L	.	8ee-\L	.	.	8ee-\L	-dzi-	.	.	8ee-\L
8E-\	.	8g/	.	8b-\	.	.	8dd\J	-wy	.	.	8b-\J
.	.	.	.	.	.	.	8qqee-/	.	.	.	.
8E-\	.	8g/	.	8b-\	.	.	4ee-\	.	.	.	8b-\L
8E-\	.	8g/	.	8b-\	.	.	.	.	.	.	8b-\
8E-\	.	8g/	.	8b-\	.	.	4r	.	.	.	8b-\
8E-\J	.	8g/J	.	8b-\J	.	.	.	.	.	.	8b-\J
!	!	!	!	!LO:LB:g=original	!	!	!	!	!	!	!
=36	=36	=36	=36	=36	=36	=36	=36	=36	=36	=36	=36
!	!	!LO:N:vis=0	!	!LO:N:vis=0	!	!	!	!	!	!	!LO:N:vis=0
!	!	!LO:TX:a:t=2	!	!LO:TX:a:t=2	!	!	!	!	!	!	!LO:TX:a:t=2
4C/	.	1.r	.	1.r	.	.	4gg\	Że	.	.	1.r
4C/	.	.	.	.	.	.	8ff\L	nie	.	.	.
.	.	.	.	.	.	.	8ee-\J	.	.	.	.
4C/	.	.	.	.	.	.	8dd\L	za	.	.	.
.	.	.	.	.	.	.	8ee-\J	.	.	.	.
=37	=37	=37	=37	=37	=37	=37	=37	=37	=37	=37	=37
.	.	.	.	.	.	.	8qqdd/	.	.	.	.
4GG/	.	.	.	.	.	0.ryy	8cc\L	pła-	0.ryy	0.ryy	.
.	.	.	.	.	.	.	8bn\J	-czo	.	.	.
.	.	.	.	.	.	.	8qqb/	.	.	.	.
8C\L	.	.	.	.	.	.	2cc\	.	.	.	.
8D\	.	.	.	.	.	.	.	.	.	.	.
8E-\	.	.	.	.	.	.	.	.	.	.	.
8C\J	.	.	.	.	.	.	.	.	.	.	.
=38	=38	=38	=38	=38	=38	=38	=38	=38	=38	=38	=38
!	!	!LO:TX:a:t=P:problem=przekreślona cauda, przepełniona miara taktu	!	!	!	!	!	!	!	!	!
!	!	!LO:N:vis=8.	!	!	!	!	!	!	!	!	!
8GG/L	.	8bn/L	.	8dd\L	.	.	16dd\LL	Jak	.	.	16dd\LL
.	.	.	.	.	.	.	16cc\JJ	.	.	.	16dd\
8GG/	.	8b/	.	8dd\	.	.	16dd\LL	isz	.	.	16dd\
.	.	.	.	.	.	.	16ee-\JJ	.	.	.	16dd\JJ
!	!	!	!	!	!LO:DY:b:t=piano	!	!LO:LB:g=original	!	!	!	!
8GG/	.	8b/	.	8dd\	p	.	4ff\	O-	.	.	16dd\LL
.	.	.	.	.	.	.	.	.	.	.	16dd\
8GG/	.	8b/	.	8dd\	.	.	.	.	.	.	16dd\
.	.	.	.	.	.	.	.	.	.	.	16dd\JJ
!	!	!	!	!	!	!	!	!	!	!	!LO:LB:g=original
8GG/	.	8b/	.	8dd\	.	.	(8ee-\L	-po-	.	.	16dd\LL
.	.	.	.	.	.	.	.	.	.	.	16dd\
8GG/J	.	8b/J	.	8dd\J	.	.	8dd\J)	.	.	.	16dd\
.	.	.	.	.	.	.	.	.	.	.	16dd\JJ
!	!	!LO:LB:g=original	!	!	!	!	!	!	!	!	!
=39	=39	=39	=39	=39	=39	=39	=39	=39	=39	=39	=39
*	*	*tremolo	*	*	*	*	*	*	*	*	*
8C/L	.	8g/L	.	8ee-\L	.	.	8ee-\L	-czy-	.	.	16ee-\LL
.	.	.	.	.	.	.	.	.	.	.	16ee-\
8C/	.	8g/	.	8ee-\	.	.	8dd\J	.	.	.	16ee-\
.	.	.	.	.	.	.	.	.	.	.	16ee-\JJ
.	.	.	.	.	.	.	8qqdd/	.	.	.	.
8C/	.	8g/	.	8ee-\	.	.	4cc\	-ste	.	.	16ee-\LL
.	.	.	.	.	.	.	.	.	.	.	16ee-\
8C/	.	8g/	.	8ee-\	.	.	.	.	.	.	16ee-\
.	.	.	.	.	.	.	.	.	.	.	16ee-\JJ
8C/	.	8g/	.	8ee-\	.	.	8r	.	.	.	16ee-\LL
.	.	.	.	.	.	.	.	.	.	.	16ee-\
8C/J	.	8g/J	.	8ee-\J	.	.	8ee\	ʃer-	.	.	16ee-\
.	.	.	.	.	.	.	.	.	.	.	16ee-\JJ
*	*	*Xtremolo	*	*	*	*	*	*	*	*	*
!LO:LB:g=original	!	!	!	!	!	!	!	!	!	!	!
=40	=40	=40	=40	=40	=40	=40	=40	=40	=40	=40	=40
!	!	!LO:TX:a:t=1.	!	!LO:TX:a:t=1.	!	!	!	!	!	!	!LO:TX:a:t=1
4F\	.	2.r	.	2.r	.	.	8dd\L	-ce	.	.	2.r
.	.	.	.	.	.	.	8ee-\J	ska-	.	.	.
4G\	.	.	.	.	.	.	(4cc\	-li-	.	.	.
4GG/	.	.	.	.	.	.	4bnt\)	.	.	.	.
=41	=41	=41	=41	=41	=41	=41	=41	=41	=41	=41	=41
8r	.	8r	.	8r	.	0.ryy	2cc\	-ste	0.ryy	0.ryy	8r
8C/L	.	8ee-\L	.	8gg\L	.	.	.	.	.	.	8gg\L
8C/	.	8ee-\	.	8gg\	.	.	.	.	.	.	8gg\
8C/	.	8ee-\	.	8gg\	.	.	.	.	.	.	8gg\
8C/	.	8ee-\	.	8gg\	.	.	4r	.	.	.	8gg\
8C/J	.	8ee-\J	.	8gg\J	.	.	.	.	.	.	8gg\J
=42	=42	=42	=42	=42	=42	=42	=42	=42	=42	=42	=42
!	!	!	!	!	!	!	!LO:TX:a:t=12	!	!	!	!
!	!	!LO:TX:a:t=P:problem=mixed beam	!	!	!	!	!LO:N:vis=00	!	!	!	!
8C\L	.	8ee-\L	.	8gg\L	.	.	0.r	.	.	.	8gg\L
8E-\	.	8g/	.	8cc\	.	.	.	.	.	.	8cc\J
8E-\	.	8g/	.	8cc\	.	.	.	.	.	.	8cc\L
8E-\	.	8g/	.	8cc\	.	.	.	.	.	.	8cc\
8E-\	.	8g/	.	8cc\	.	.	.	.	.	.	8cc\
8E-\J	.	8g/J	.	8cc\J	.	.	.	.	.	.	8cc\J
=43	=43	=43	=43	=43	=43	=43	=43	=43	=43	=43	=43
8F\L	.	8g/L	.	8cc\L	.	.	.	.	.	.	8cc\L
8F\	.	8G/	.	8bn\	.	.	.	.	.	.	8bn\
8F\	.	8G/	.	8b\	.	.	.	.	.	.	8b\
8F\	.	8G/	.	8b\	.	.	.	.	.	.	8b\
8F\	.	8G/	.	8b\	.	.	.	.	.	.	8b\
8F\J	.	8G/J	.	8b\J	.	.	.	.	.	.	8b\J
!	!	!	!	!LO:LB:g=original	!	!	!	!	!	!	!
=44	=44	=44	=44	=44	=44	=44	=44	=44	=44	=44	=44
!LO:TX:a:t=P:problem=mixed beam	!	!	!	!	!	!	!	!	!	!	!
8G\L	.	8d/L	.	8b-\L	.	.	.	.	.	.	8b-\L
8GG/	.	8d/	.	8b-\	.	.	.	.	.	.	8b-\
8GG/	.	8d/	.	8b-\	.	.	.	.	.	.	8b-\
8GG/	.	8d/	.	8b-\	.	.	.	.	.	.	8b-\
8GG/	.	8d/	.	8b-\	.	.	.	.	.	.	8b-\
8GG/J	.	8d/J	.	8b-\J	.	.	.	.	.	.	8b-\J
!	!	!	!	!	!	!	!	!	!	!	!LO:LB:g=original
=45	=45	=45	=45	=45	=45	=45	=45	=45	=45	=45	=45
4C/	.	(8d/	.	8cc\	.	0.ryy	.	.	0.ryy	0.ryy	8cc\
.	.	4ee-\	.	(4gg\	.	.	.	.	.	.	4gg\
4r	.	.	.	.	.	.	.	.	.	.	.
.	.	4cc\)	.	4ee-\)	.	.	.	.	.	.	4ee-\
4r	.	.	.	.	.	.	.	.	.	.	.
.	.	8g/	.	8cc\	.	.	.	.	.	.	8cc\
!	!	!LO:LB:g=original	!	!	!	!	!	!	!	!	!
=46	=46	=46	=46	=46	=46	=46	=46	=46	=46	=46	=46
!	!	!	!	!	!	!	!LO:N:vis=00	!	!	!	!
8r	.	4ffT\	.	4aa-\	.	.	0.r	.	.	.	4aa-\
8c\L	.	.	.	.	.	.	.	.	.	.	.
8A-X\	.	4r	.	4r	.	.	.	.	.	.	4r
8F\	.	.	.	.	.	.	.	.	.	.	.
8A-\	.	4r	.	4r	.	.	.	.	.	.	4r
8F\J	.	.	.	.	.	.	.	.	.	.	.
=47	=47	=47	=47	=47	=47	=47	=47	=47	=47	=47	=47
4D\	.	8d/	.	8cc\	.	.	.	.	.	.	8dd\
.	.	(4dd\	.	4ff\	.	.	.	.	.	.	4ff\
4r	.	.	.	.	.	.	.	.	.	.	.
.	.	4b-X\	.	4dd\	.	.	.	.	.	.	4dd\
4r	.	.	.	.	.	.	.	.	.	.	.
.	.	8f/)	.	8b-\	.	.	.	.	.	.	8b-\
!LO:LB:g=original	!	!	!	!	!	!	!	!	!	!	!
=48	=48	=48	=48	=48	=48	=48	=48	=48	=48	=48	=48
8r	.	4ee-T\	.	4gg\	.	.	.	.	.	.	4gg\
8B-\L	.	.	.	.	.	.	.	.	.	.	.
8G\	.	4r	.	4r	.	.	.	.	.	.	4r
8E-\	.	.	.	.	.	.	.	.	.	.	.
8G\	.	4r	.	4r	.	.	.	.	.	.	4r
8E-\J	.	.	.	.	.	.	.	.	.	.	.
=49	=49	=49	=49	=49	=49	=49	=49	=49	=49	=49	=49
4AA-/	.	8f/	.	8cc\	.	0.ryy	.	.	0.ryy	0.ryy	8cc\
.	.	4cc/	.	4ee-\	.	.	.	.	.	.	4ee-\
4r	.	.	.	.	.	.	.	.	.	.	.
.	.	4e-/	.	4cc\	.	.	.	.	.	.	4cc\
4r	.	.	.	.	.	.	.	.	.	.	.
.	.	8cc/	.	8ee-\	.	.	.	.	.	.	8ee-\
!	!	!	!	!LO:LB:g=original	!	!	!	!	!	!	!
=50	=50	=50	=50	=50	=50	=50	=50	=50	=50	=50	=50
!	!	!	!	!	!	!	!LO:N:vis=00	!	!	!	!
4GG/	.	8dd\	.	8ff\	.	.	0.r	.	.	.	8ff\
.	.	4bn\	.	4dd\	.	.	.	.	.	.	4dd\
8r	.	.	.	.	.	.	.	.	.	.	.
8GG/L	.	(8dd\L	.	8ff\L	.	.	.	.	.	.	8ff\L
8GG/	.	8cc\	.	8ee-\	.	.	.	.	.	.	8ee-\
8GG/J	.	8b\J)	.	8dd\J	.	.	.	.	.	.	8dd\J
=51	=51	=51	=51	=51	=51	=51	=51	=51	=51	=51	=51
!	!	!LO:TX:a:t=P:problem=mixed beam	!	!	!	!	!	!	!	!	!
4C/	.	8cc\L	.	8ee-\L	.	.	.	.	.	.	8ee-\L
.	.	8e-/	.	8cc\J	.	.	.	.	.	.	8cc\J
!	!	!	!	!LO:TX:a:t=P:problem=mixed beam	!	!	!	!	!	!	!
4F\	.	8a-/	.	8d/L	.	.	.	.	.	.	8d/L
.	.	8d/	.	8cc\	.	.	.	.	.	.	8cc\
4G\	.	8B-/	.	8d/	.	.	.	.	.	.	8d/
.	.	8d/J	.	8bn\J	.	.	.	.	.	.	8b-\J
=52	=52	=52	=52	=52	=52	=52	=52	=52	=52	=52	=52
!	!	!	!	!	!	!	!	!	!	!	!LO:SIC:s=2gg:v
2.C/	.	2e-/	.	2G/ 2e- 2cc	.	.	.	.	.	.	2aa-\
.	.	4r	.	4r	.	.	.	.	.	.	4r
!	!	!	!	!LO:TX:b:t=ʃeq. Pars	!	!	!	!	!	!	!
=53	=53	=53	=53	=53	=53	=53	=53	=53	=53	=53	=53
!LO:TX:a:t=P:problem=brak jednego taktu	!	!LO:TX:a:t=P:problem=brak jednego taktu	!	!LO:TX:a:t=P:problem=brak jednego taktu	!	!	!	!	!	!	!
2.r	.	2.ryy	.	2.ryy	.	2.r	.	.	2.r	2.r	2.r
==	==	==	==	==;;	==	==	==	==	==	==	==
*-	*-	*-	*-	*-	*-	*-	*-	*-	*-	*-	*-
!!!system-decoration: [(g1)][(g2)][(g3)][(g4)][(g5)]
!!!ENC: Anna Matuszewska
!!!END: 2020-12-01
!!!ENC: Andrzej Gręziak
!!!END: 2020-04-27
!!!YEC: Copyright 2022 Narodowy Instytut Fryderyka Chopina (https://polishscores.org)
!!!YEM: License CC-BY-4.0 (https://creativecommons.org/licenses/by/4.0)
